assets/logo/base-mask/not-ninja-logo-mask.svg

<?xml version="1.0" encoding="utf-8"?>
<svg xmlns="http://www.w3.org/2000/svg" xmlns:xlink="http://www.w3.org/1999/xlink" version="1.1" viewBox="0 0 100 100">
  <defs>
    <symbol id="logo" viewBox="0 0 100 100">
      <path d="M 0 75 v -50 a 25 25 0 0 1 25 -25 h 50 a 25 25 0 0 1 25 25 v 50 a 25 25 0 0 1 -25 25 h -26 v -45 h 26 a 10 10 0 0 0 10 -10 v -5 a 10 10 0 0 0 -10 -10 h -50 a 10 10 0 0 0 -10 10 v 5 a 10 10 0 0 0 10 10 h 26 v 45 h -26 a 25 25 0 0 1 -25 -25 Z" fill="black" stroke="none" />
      <rect x="30" y="35" rx="5" ry="5" width="10" height="15" fill="black" stroke="none" />
      <rect x="60" y="35" rx="5" ry="5" width="10" height="15" fill="black" stroke="none" />
    </symbol>
  </defs>

  <use xlink:href="#logo" x="0" y="0" width="100" height="100" />
</svg>

<?xml version="1.0" encoding="utf-8"?>
<svg xmlns="http://www.w3.org/2000/svg" xmlns:xlink="http://www.w3.org/1999/xlink" version="1.1" viewBox="0 0 16 16">
  <defs>
    <symbol id="ninja" viewBox="0 0 100 100">
      <path d="M 50 0 H 75 A 25 25 0 0 1 100 25 V 75 A 25 25 0 0 1 75 100 H 50 V 55 H 75 A 10 10 0 0 0 85 45 V 40 A 10 10 0 0 0 75 30 H 25 A 10 10 0 0 0 15 40 V 45 A 10 10 0 0 0 25 55 H 60 V 100 H 25 A 25 25 0 0 1 0 75 V 25 A 25 25 0 0 1 25 0 H 50 Z" fill="black" stroke="none" />
      <rect x="30" y="35" rx="5" ry="5" width="10" height="15" fill="black" stroke="none" />
      <rect x="60" y="35" rx="5" ry="5" width="10" height="15" fill="black" stroke="none" />
    </symbol>
  </defs>

  <use xlink:href="#ninja" x="0" y="0" width="16" height="16" />
</svg>
